public/img/eye.svg

<svg enable-background="new 0 0 1000 1000" fill="#dedede" viewBox="0 0 1000 1000" xmlns="http://www.w3.org/2000/svg"><path d="m977.7 482.3c-146.2-181.1-304.3-273.5-470-273.5-280.7 0-477.2 263.2-485.4 274l-12.3 16.4 12.8 15.9c150.3 183.2 309.9 276 475.6 276 281.2 0 472-266.3 479.7-277.6l11.8-16.4zm-473.1 221.1c-111.9 0-203.2-91.3-203.2-203.2s91.3-203.2 203.2-203.2 203.2 91.3 203.2 203.2c0 112.4-90.8 203.2-203.2 203.2zm-426.4-204.7c34.9-42.1 138.5-155 279.6-207.8-66.2 46.2-109.3 123.1-109.3 209.9 0 89.8 46.7 169.3 117 215-97.9-34.9-193.9-107.3-287.3-217.1zm579.3 207.3c62.6-46.7 103.6-121.6 103.6-205.7 0-88.3-44.6-166.2-112.9-212.4 94.4 34.9 186.3 105.7 275 211.4-33.3 41.5-130.2 151.3-265.7 206.7zm-209.3-205.7c0 31.2 25.3 56.4 56.4 56.4 31.2 0 56.4-25.3 56.4-56.4s-25.3-56.4-56.4-56.4c-31.2-.1-56.4 25.2-56.4 56.4z"/></svg>

<?xml version="1.0" encoding="utf-8"?>
<!-- Svg Vector Icons : http://www.onlinewebfonts.com/icon -->
<!DOCTYPE svg PUBLIC "-//W3C//DTD SVG 1.1//EN" "http://www.w3.org/Graphics/SVG/1.1/DTD/svg11.dtd">
<svg version="1.1" xmlns="http://www.w3.org/2000/svg" xmlns:xlink="http://www.w3.org/1999/xlink" x="0px" y="0px" viewBox="0 0 1000 1000" enable-background="new 0 0 1000 1000" xml:space="preserve" style="fill:#dedede">
<g><path d="M977.7,482.3c-146.2-181.1-304.3-273.5-470-273.5C227,208.8,30.5,472,22.3,482.8L10,499.2l12.8,15.9c150.3,183.2,309.9,276,475.6,276c281.2,0,472-266.3,479.7-277.6l11.8-16.4L977.7,482.3z M504.6,703.4c-111.9,0-203.2-91.3-203.2-203.2c0-111.9,91.3-203.2,203.2-203.2c111.9,0,203.2,91.3,203.2,203.2C707.8,612.6,617,703.4,504.6,703.4z M78.2,498.7c34.9-42.1,138.5-155,279.6-207.8c-66.2,46.2-109.3,123.1-109.3,209.9c0,89.8,46.7,169.3,117,215C267.6,680.9,171.6,608.5,78.2,498.7z M657.5,706c62.6-46.7,103.6-121.6,103.6-205.7c0-88.3-44.6-166.2-112.9-212.4c94.4,34.9,186.3,105.7,275,211.4C889.9,540.8,793,650.6,657.5,706z M448.2,500.3c0,31.2,25.3,56.4,56.4,56.4c31.2,0,56.4-25.3,56.4-56.4s-25.3-56.4-56.4-56.4C473.4,443.8,448.2,469.1,448.2,500.3L448.2,500.3z"/></g>
</svg>
